X:31
T:Cail\'in na Gruaige Doinne
T:Girl with the Brown Hair, The
R:slow air
Z:id:hn-slowair-31
M:3/4
L:1/8
Q:1/4=100
K:G
D2 | G3 ABc | d4 B2F | g4 fd | e4 A2 | d4 c2 | Bc A3G | G6- | G4 :|
d2 | g4 fg | a4 fa | g4 fd | e4 A2 | d4 c2 | Bc A3G | G6- | G4 ||
D2 | G3 ABc | d4 B2 | g4 fd | e4 A2 | d4 c2 | Bc A3G | G6- | G4 ||

